X: 1
T: Maisie Herlihy's
M: 4/4
L: 1/8
R: reel
K: Dmix
G2 BG A3 G | EAGE D2 EF | G2 BG AedB | GBAG A3 F |
G2 BG A3 G | EAGE D2 EF | G2 BG AedB | GBAG G4 |
Adde dcAc | BAGB AGEG | DAAB AGEG | ABAG A3 B | 
d3 e f2 ed | c2 Ac BAGE | DAAB AGEG | ABGB A4 |
